src/shared/assets/images/stellarburger.svg

<svg width="50" height="50" viewBox="0 0 50 50" fill="none" xmlns="http://www.w3.org/2000/svg">
<g filter="url(#filter0_f_143960_2362)">
<path d="M40.5127 37.6331C41.0133 37.0196 40.5621 36.1398 39.7704 36.1268C29.664 35.9604 21.2118 36.1472 10.7582 36.7832C9.96742 36.8314 9.55522 37.7311 10.0832 38.3217C13.7464 42.4201 19.0738 45 25.0039 45C31.2595 45 36.8446 42.1291 40.5127 37.6331Z" stroke="#4C4CFF" stroke-linecap="round" stroke-linejoin="round"/>
<path d="M7.64272 15.0579C7.25238 15.7378 7.82746 16.5294 8.60585 16.436C20.1726 15.048 28.6979 14.6341 40.7882 15.3703C41.5749 15.4182 42.1044 14.5873 41.6676 13.9313C38.0829 8.54757 31.9578 5 25.0039 5C17.5757 5 11.0932 9.04797 7.64272 15.0579Z" stroke="#4C4CFF" stroke-linecap="round" stroke-linejoin="round"/>
</g>
<g filter="url(#filter1_f_143960_2362)">
<path d="M40.5127 37.6331C41.0133 37.0196 40.5621 36.1398 39.7704 36.1268C29.664 35.9604 21.2118 36.1472 10.7582 36.7832C9.96742 36.8314 9.55522 37.7311 10.0832 38.3217C13.7464 42.4201 19.0738 45 25.0039 45C31.2595 45 36.8446 42.1291 40.5127 37.6331Z" stroke="#4C4CFF" stroke-linecap="round" stroke-linejoin="round"/>
<path d="M7.64272 15.0579C7.25238 15.7378 7.82746 16.5294 8.60585 16.436C20.1726 15.048 28.6979 14.6341 40.7882 15.3703C41.5749 15.4182 42.1044 14.5873 41.6676 13.9313C38.0829 8.54757 31.9578 5 25.0039 5C17.5757 5 11.0932 9.04797 7.64272 15.0579Z" stroke="#4C4CFF" stroke-linecap="round" stroke-linejoin="round"/>
</g>
<path d="M40.5127 37.6331C41.0133 37.0196 40.5621 36.1398 39.7704 36.1268C29.664 35.9604 21.2118 36.1472 10.7582 36.7832C9.96742 36.8314 9.55522 37.7311 10.0832 38.3217C13.7464 42.4201 19.0738 45 25.0039 45C31.2595 45 36.8446 42.1291 40.5127 37.6331Z" stroke="#4C4CFF" stroke-linecap="round" stroke-linejoin="round"/>
<path d="M7.64272 15.0579C7.25238 15.7378 7.82746 16.5294 8.60585 16.436C20.1726 15.048 28.6979 14.6341 40.7882 15.3703C41.5749 15.4182 42.1044 14.5873 41.6676 13.9313C38.0829 8.54757 31.9578 5 25.0039 5C17.5757 5 11.0932 9.04797 7.64272 15.0579Z" stroke="#4C4CFF" stroke-linecap="round" stroke-linejoin="round"/>
<path d="M40.5127 37.6331C41.0133 37.0196 40.5621 36.1398 39.7704 36.1268C29.664 35.9604 21.2118 36.1472 10.7582 36.7832C9.96742 36.8314 9.55522 37.7311 10.0832 38.3217C13.7464 42.4201 19.0738 45 25.0039 45C31.2595 45 36.8446 42.1291 40.5127 37.6331Z" stroke="white" stroke-width="0.5" stroke-linecap="round" stroke-linejoin="round"/>
<path d="M7.64272 15.0579C7.25238 15.7378 7.82746 16.5294 8.60585 16.436C20.1726 15.048 28.6979 14.6341 40.7882 15.3703C41.5749 15.4182 42.1044 14.5873 41.6676 13.9313C38.0829 8.54757 31.9578 5 25.0039 5C17.5757 5 11.0932 9.04797 7.64272 15.0579Z" stroke="white" stroke-width="0.5" stroke-linecap="round" stroke-linejoin="round"/>
<g filter="url(#filter2_f_143960_2362)">
<path d="M44.8593 27.4656C44.9878 26.4133 44.172 25.5115 43.1153 25.4264C30.2353 24.3883 20.1843 24.2251 6.88969 24.9245C5.83054 24.9802 4.98957 25.8596 5.08911 26.9156C5.23042 28.4145 5.5372 29.8654 5.99099 31.2496C6.2525 32.0473 7.03156 32.5408 7.87056 32.5118C20.3831 32.0783 30.0602 32.0468 42.1958 32.3747C43.0353 32.3973 43.8109 31.8976 44.0661 31.0975C44.4385 29.9298 44.7065 28.7155 44.8593 27.4656Z" stroke="#E33CD5" stroke-linecap="round" stroke-linejoin="round"/>
</g>
<g filter="url(#filter3_f_143960_2362)">
<path d="M44.8593 27.4656C44.9878 26.4133 44.172 25.5115 43.1153 25.4264C30.2353 24.3883 20.1843 24.2251 6.88969 24.9245C5.83054 24.9802 4.98957 25.8596 5.08911 26.9156C5.23042 28.4145 5.5372 29.8654 5.99099 31.2496C6.2525 32.0473 7.03156 32.5408 7.87056 32.5118C20.3831 32.0783 30.0602 32.0468 42.1958 32.3747C43.0353 32.3973 43.8109 31.8976 44.0661 31.0975C44.4385 29.9298 44.7065 28.7155 44.8593 27.4656Z" stroke="#E33CD5" stroke-linecap="round" stroke-linejoin="round"/>
</g>
<path d="M44.8593 27.4656C44.9878 26.4133 44.172 25.5115 43.1153 25.4264C30.2353 24.3883 20.1843 24.2251 6.88969 24.9245C5.83054 24.9802 4.98957 25.8596 5.08911 26.9156C5.23042 28.4145 5.5372 29.8654 5.99099 31.2496C6.2525 32.0473 7.03156 32.5408 7.87056 32.5118C20.3831 32.0783 30.0602 32.0468 42.1958 32.3747C43.0353 32.3973 43.8109 31.8976 44.0661 31.0975C44.4385 29.9298 44.7065 28.7155 44.8593 27.4656Z" stroke="#E33CD5" stroke-linecap="round" stroke-linejoin="round"/>
<path d="M44.8593 27.4656C44.9878 26.4133 44.172 25.5115 43.1153 25.4264C30.2353 24.3883 20.1843 24.2251 6.88969 24.9245C5.83054 24.9802 4.98957 25.8596 5.08911 26.9156C5.23042 28.4145 5.5372 29.8654 5.99099 31.2496C6.2525 32.0473 7.03156 32.5408 7.87056 32.5118C20.3831 32.0783 30.0602 32.0468 42.1958 32.3747C43.0353 32.3973 43.8109 31.8976 44.0661 31.0975C44.4385 29.9298 44.7065 28.7155 44.8593 27.4656Z" stroke="white" stroke-width="0.5" stroke-linecap="round" stroke-linejoin="round"/>
<g filter="url(#filter4_f_143960_2362)">
<path d="M5 20.5C7.66667 18.5 10.3333 18.5 13 20.5C15.6667 22.5 18.3333 22.5 21 20.5C23.6667 18.5 26.3333 18.5 29 20.5C31.6667 22.5 34.3333 22.5 37 20.5C39.6667 18.5 42.3333 18.5 45 20.5" stroke="#00CCCC" stroke-linecap="round" stroke-linejoin="round"/>
</g>
<g filter="url(#filter5_f_143960_2362)">
<path d="M5 20.5C7.66667 18.5 10.3333 18.5 13 20.5C15.6667 22.5 18.3333 22.5 21 20.5C23.6667 18.5 26.3333 18.5 29 20.5C31.6667 22.5 34.3333 22.5 37 20.5C39.6667 18.5 42.3333 18.5 45 20.5" stroke="#00CCCC" stroke-linecap="round" stroke-linejoin="round"/>
</g>
<path d="M5 20.5C7.66667 18.5 10.3333 18.5 13 20.5C15.6667 22.5 18.3333 22.5 21 20.5C23.6667 18.5 26.3333 18.5 29 20.5C31.6667 22.5 34.3333 22.5 37 20.5C39.6667 18.5 42.3333 18.5 45 20.5" stroke="#00CCCC" stroke-linecap="round" stroke-linejoin="round"/>
<path d="M5 20.5C7.66667 18.5 10.3333 18.5 13 20.5C15.6667 22.5 18.3333 22.5 21 20.5C23.6667 18.5 26.3333 18.5 29 20.5C31.6667 22.5 34.3333 22.5 37 20.5C39.6667 18.5 42.3333 18.5 45 20.5" stroke="white" stroke-width="0.5" stroke-linecap="round" stroke-linejoin="round"/>
<g filter="url(#filter6_f_143960_2362)">
<ellipse cx="1" cy="0.75" rx="1" ry="0.75" transform="matrix(0.885492 0.464655 0.464655 -0.885492 17 40.1807)" stroke="#4C4CFF"/>
<ellipse cx="33.7076" cy="11.3542" rx="1.5" ry="1" transform="rotate(15 33.7076 11.3542)" stroke="#4C4CFF"/>
<ellipse cx="1" cy="0.75" rx="1" ry="0.75" transform="matrix(0.965926 -0.258819 -0.258819 -0.965926 30.3882 40.9666)" stroke="#4C4CFF"/>
<ellipse cx="23.5" cy="12" rx="1.5" ry="1" transform="rotate(180 23.5 12)" stroke="#4C4CFF"/>
<ellipse cx="27.7076" cy="8.35415" rx="1.5" ry="1" transform="rotate(15 27.7076 8.35415)" stroke="#4C4CFF"/>
<ellipse cx="1" cy="0.75" rx="1" ry="0.75" transform="matrix(1 0 0 -1 24 42.5)" stroke="#4C4CFF"/>
<ellipse cx="16.7929" cy="10.5826" rx="1.5" ry="1" transform="rotate(-27.6879 16.7929 10.5826)" stroke="#4C4CFF"/>
</g>
<g filter="url(#filter7_f_143960_2362)">
<ellipse cx="1" cy="0.75" rx="1" ry="0.75" transform="matrix(0.885492 0.464655 0.464655 -0.885492 17 40.1807)" stroke="#4C4CFF"/>
<ellipse cx="33.7076" cy="11.3542" rx="1.5" ry="1" transform="rotate(15 33.7076 11.3542)" stroke="#4C4CFF"/>
<ellipse cx="1" cy="0.75" rx="1" ry="0.75" transform="matrix(0.965926 -0.258819 -0.258819 -0.965926 30.3882 40.9666)" stroke="#4C4CFF"/>
<ellipse cx="23.5" cy="12" rx="1.5" ry="1" transform="rotate(180 23.5 12)" stroke="#4C4CFF"/>
<ellipse cx="27.7076" cy="8.35415" rx="1.5" ry="1" transform="rotate(15 27.7076 8.35415)" stroke="#4C4CFF"/>
<ellipse cx="1" cy="0.75" rx="1" ry="0.75" transform="matrix(1 0 0 -1 24 42.5)" stroke="#4C4CFF"/>
<ellipse cx="16.7929" cy="10.5826" rx="1.5" ry="1" transform="rotate(-27.6879 16.7929 10.5826)" stroke="#4C4CFF"/>
</g>
<ellipse cx="1" cy="0.75" rx="1" ry="0.75" transform="matrix(0.885492 0.464655 0.464655 -0.885492 17 40.1807)" stroke="#4C4CFF"/>
<ellipse cx="33.7076" cy="11.3542" rx="1.5" ry="1" transform="rotate(15 33.7076 11.3542)" stroke="#4C4CFF"/>
<ellipse cx="1" cy="0.75" rx="1" ry="0.75" transform="matrix(0.965926 -0.258819 -0.258819 -0.965926 30.3882 40.9666)" stroke="#4C4CFF"/>
<ellipse cx="23.5" cy="12" rx="1.5" ry="1" transform="rotate(180 23.5 12)" stroke="#4C4CFF"/>
<ellipse cx="27.7076" cy="8.35415" rx="1.5" ry="1" transform="rotate(15 27.7076 8.35415)" stroke="#4C4CFF"/>
<ellipse cx="1" cy="0.75" rx="1" ry="0.75" transform="matrix(1 0 0 -1 24 42.5)" stroke="#4C4CFF"/>
<ellipse cx="16.7929" cy="10.5826" rx="1.5" ry="1" transform="rotate(-27.6879 16.7929 10.5826)" stroke="#4C4CFF"/>
<ellipse cx="1" cy="0.75" rx="1" ry="0.75" transform="matrix(0.885492 0.464655 0.464655 -0.885492 17 40.1807)" stroke="white" stroke-width="0.5"/>
<ellipse cx="33.7076" cy="11.3542" rx="1.5" ry="1" transform="rotate(15 33.7076 11.3542)" stroke="white" stroke-width="0.5"/>
<ellipse cx="1" cy="0.75" rx="1" ry="0.75" transform="matrix(0.965926 -0.258819 -0.258819 -0.965926 30.3882 40.9666)" stroke="white" stroke-width="0.5"/>
<ellipse cx="23.5" cy="12" rx="1.5" ry="1" transform="rotate(180 23.5 12)" stroke="white" stroke-width="0.5"/>
<ellipse cx="27.7076" cy="8.35415" rx="1.5" ry="1" transform="rotate(15 27.7076 8.35415)" stroke="white" stroke-width="0.5"/>
<ellipse cx="1" cy="0.75" rx="1" ry="0.75" transform="matrix(1 0 0 -1 24 42.5)" stroke="white" stroke-width="0.5"/>
<ellipse cx="16.7929" cy="10.5826" rx="1.5" ry="1" transform="rotate(-27.6879 16.7929 10.5826)" stroke="white" stroke-width="0.5"/>
<defs>
<filter id="filter0_f_143960_2362" x="3.01221" y="0.5" width="43.3184" height="49" filterUnits="userSpaceOnUse" color-interpolation-filters="sRGB">
<feFlood flood-opacity="0" result="BackgroundImageFix"/>
<feBlend mode="normal" in="SourceGraphic" in2="BackgroundImageFix" result="shape"/>
<feGaussianBlur stdDeviation="2" result="effect1_foregroundBlur_143960_2362"/>
</filter>
<filter id="filter1_f_143960_2362" x="3.01221" y="0.5" width="43.3184" height="49" filterUnits="userSpaceOnUse" color-interpolation-filters="sRGB">
<feFlood flood-opacity="0" result="BackgroundImageFix"/>
<feBlend mode="normal" in="SourceGraphic" in2="BackgroundImageFix" result="shape"/>
<feGaussianBlur stdDeviation="2" result="effect1_foregroundBlur_143960_2362"/>
</filter>
<filter id="filter2_f_143960_2362" x="0.580811" y="20" width="48.792" height="17.0129" filterUnits="userSpaceOnUse" color-interpolation-filters="sRGB">
<feFlood flood-opacity="0" result="BackgroundImageFix"/>
<feBlend mode="normal" in="SourceGraphic" in2="BackgroundImageFix" result="shape"/>
<feGaussianBlur stdDeviation="2" result="effect1_foregroundBlur_143960_2362"/>
</filter>
<filter id="filter3_f_143960_2362" x="0.580811" y="20" width="48.792" height="17.0129" filterUnits="userSpaceOnUse" color-interpolation-filters="sRGB">
<feFlood flood-opacity="0" result="BackgroundImageFix"/>
<feBlend mode="normal" in="SourceGraphic" in2="BackgroundImageFix" result="shape"/>
<feGaussianBlur stdDeviation="2" result="effect1_foregroundBlur_143960_2362"/>
</filter>
<filter id="filter4_f_143960_2362" x="0.5" y="14.5" width="49" height="12" filterUnits="userSpaceOnUse" color-interpolation-filters="sRGB">
<feFlood flood-opacity="0" result="BackgroundImageFix"/>
<feBlend mode="normal" in="SourceGraphic" in2="BackgroundImageFix" result="shape"/>
<feGaussianBlur stdDeviation="2" result="effect1_foregroundBlur_143960_2362"/>
</filter>
<filter id="filter5_f_143960_2362" x="0.5" y="14.5" width="49" height="12" filterUnits="userSpaceOnUse" color-interpolation-filters="sRGB">
<feFlood flood-opacity="0" result="BackgroundImageFix"/>
<feBlend mode="normal" in="SourceGraphic" in2="BackgroundImageFix" result="shape"/>
<feGaussianBlur stdDeviation="2" result="effect1_foregroundBlur_143960_2362"/>
</filter>
<filter id="filter6_f_143960_2362" x="10.885" y="2.81274" width="28.7952" height="44.1873" filterUnits="userSpaceOnUse" color-interpolation-filters="sRGB">
<feFlood flood-opacity="0" result="BackgroundImageFix"/>
<feBlend mode="normal" in="SourceGraphic" in2="BackgroundImageFix" result="shape"/>
<feGaussianBlur stdDeviation="2" result="effect1_foregroundBlur_143960_2362"/>
</filter>
<filter id="filter7_f_143960_2362" x="10.885" y="2.81274" width="28.7952" height="44.1873" filterUnits="userSpaceOnUse" color-interpolation-filters="sRGB">
<feFlood flood-opacity="0" result="BackgroundImageFix"/>
<feBlend mode="normal" in="SourceGraphic" in2="BackgroundImageFix" result="shape"/>
<feGaussianBlur stdDeviation="2" result="effect1_foregroundBlur_143960_2362"/>
</filter>
</defs>
</svg>

<svg xmlns="http://www.w3.org/2000/svg" width="50" height="50" fill="none">
  <g stroke="#4C4CFF" stroke-linecap="round" stroke-linejoin="round" filter="url(#a)">
    <path d="M40.5 37.6c.5-.6 0-1.5-.7-1.5-10.1-.1-18.6 0-29 .7-.8 0-1.2 1-.7 1.5a20 20 0 0 0 30.4-.7ZM7.6 15.1c-.3.6.2 1.4 1 1.3 11.6-1.4 20.1-1.8 32.2-1 .8 0 1.3-.8.9-1.5a20 20 0 0 0-34 1.2Z"/>
  </g>
  <g stroke="#4C4CFF" stroke-linecap="round" stroke-linejoin="round" filter="url(#b)">
    <path d="M40.5 37.6c.5-.6 0-1.5-.7-1.5-10.1-.1-18.6 0-29 .7-.8 0-1.2 1-.7 1.5a20 20 0 0 0 30.4-.7ZM7.6 15.1c-.3.6.2 1.4 1 1.3 11.6-1.4 20.1-1.8 32.2-1 .8 0 1.3-.8.9-1.5a20 20 0 0 0-34 1.2Z"/>
  </g>
  <path stroke="#4C4CFF" stroke-linecap="round" stroke-linejoin="round" d="M40.5 37.6c.5-.6 0-1.5-.7-1.5-10.1-.1-18.6 0-29 .7-.8 0-1.2 1-.7 1.5a20 20 0 0 0 30.4-.7ZM7.6 15.1c-.3.6.2 1.4 1 1.3 11.6-1.4 20.1-1.8 32.2-1 .8 0 1.3-.8.9-1.5a20 20 0 0 0-34 1.2Z"/>
  <path stroke="#fff" stroke-linecap="round" stroke-linejoin="round" stroke-width=".5" d="M40.5 37.6c.5-.6 0-1.5-.7-1.5-10.1-.1-18.6 0-29 .7-.8 0-1.2 1-.7 1.5a20 20 0 0 0 30.4-.7ZM7.6 15.1c-.3.6.2 1.4 1 1.3 11.6-1.4 20.1-1.8 32.2-1 .8 0 1.3-.8.9-1.5a20 20 0 0 0-34 1.2Z"/>
  <g filter="url(#c)">
    <path stroke="#E33CD5" stroke-linecap="round" stroke-linejoin="round" d="M44.9 27.5c0-1-.7-2-1.8-2-12.9-1.1-23-1.3-36.2-.6-1 0-2 1-1.8 2 .1 1.5.4 3 .9 4.3.3.8 1 1.3 1.9 1.3a517 517 0 0 1 34.3-.1c.8 0 1.6-.5 1.9-1.3l.8-3.6Z"/>
  </g>
  <g filter="url(#d)">
    <path stroke="#E33CD5" stroke-linecap="round" stroke-linejoin="round" d="M44.9 27.5c0-1-.7-2-1.8-2-12.9-1.1-23-1.3-36.2-.6-1 0-2 1-1.8 2 .1 1.5.4 3 .9 4.3.3.8 1 1.3 1.9 1.3a517 517 0 0 1 34.3-.1c.8 0 1.6-.5 1.9-1.3l.8-3.6Z"/>
  </g>
  <path stroke="#E33CD5" stroke-linecap="round" stroke-linejoin="round" d="M44.9 27.5c0-1-.7-2-1.8-2-12.9-1.1-23-1.3-36.2-.6-1 0-2 1-1.8 2 .1 1.5.4 3 .9 4.3.3.8 1 1.3 1.9 1.3a517 517 0 0 1 34.3-.1c.8 0 1.6-.5 1.9-1.3l.8-3.6Z"/>
  <path stroke="#fff" stroke-linecap="round" stroke-linejoin="round" stroke-width=".5" d="M44.9 27.5c0-1-.7-2-1.8-2-12.9-1.1-23-1.3-36.2-.6-1 0-2 1-1.8 2 .1 1.5.4 3 .9 4.3.3.8 1 1.3 1.9 1.3a517 517 0 0 1 34.3-.1c.8 0 1.6-.5 1.9-1.3l.8-3.6Z"/>
  <g filter="url(#e)">
    <path stroke="#0CC" stroke-linecap="round" stroke-linejoin="round" d="M5 20.5c2.7-2 5.3-2 8 0s5.3 2 8 0 5.3-2 8 0 5.3 2 8 0 5.3-2 8 0"/>
  </g>
  <g filter="url(#f)">
    <path stroke="#0CC" stroke-linecap="round" stroke-linejoin="round" d="M5 20.5c2.7-2 5.3-2 8 0s5.3 2 8 0 5.3-2 8 0 5.3 2 8 0 5.3-2 8 0"/>
  </g>
  <path stroke="#0CC" stroke-linecap="round" stroke-linejoin="round" d="M5 20.5c2.7-2 5.3-2 8 0s5.3 2 8 0 5.3-2 8 0 5.3 2 8 0 5.3-2 8 0"/>
  <path stroke="#fff" stroke-linecap="round" stroke-linejoin="round" stroke-width=".5" d="M5 20.5c2.7-2 5.3-2 8 0s5.3 2 8 0 5.3-2 8 0 5.3 2 8 0 5.3-2 8 0"/>
  <g stroke="#4C4CFF" filter="url(#g)">
    <ellipse cx="1" cy=".8" rx="1" ry=".8" transform="matrix(.9 .5 .5 -.9 17 40.2)"/>
    <ellipse cx="33.7" cy="11.4" rx="1.5" ry="1" transform="rotate(15 33.7 11.4)"/>
    <ellipse cx="1" cy=".8" rx="1" ry=".8" transform="matrix(1 -.3 -.3 -1 30.4 41)"/>
    <ellipse cx="23.5" cy="12" rx="1.5" ry="1" transform="rotate(180 23.5 12)"/>
    <ellipse cx="27.7" cy="8.4" rx="1.5" ry="1" transform="rotate(15 27.7 8.4)"/>
    <ellipse cx="1" cy=".8" rx="1" ry=".8" transform="matrix(1 0 0 -1 24 42.5)"/>
    <ellipse cx="16.8" cy="10.6" rx="1.5" ry="1" transform="rotate(-28 16.8 10.6)"/>
  </g>
  <g stroke="#4C4CFF" filter="url(#h)">
    <ellipse cx="1" cy=".8" rx="1" ry=".8" transform="matrix(.9 .5 .5 -.9 17 40.2)"/>
    <ellipse cx="33.7" cy="11.4" rx="1.5" ry="1" transform="rotate(15 33.7 11.4)"/>
    <ellipse cx="1" cy=".8" rx="1" ry=".8" transform="matrix(1 -.3 -.3 -1 30.4 41)"/>
    <ellipse cx="23.5" cy="12" rx="1.5" ry="1" transform="rotate(180 23.5 12)"/>
    <ellipse cx="27.7" cy="8.4" rx="1.5" ry="1" transform="rotate(15 27.7 8.4)"/>
    <ellipse cx="1" cy=".8" rx="1" ry=".8" transform="matrix(1 0 0 -1 24 42.5)"/>
    <ellipse cx="16.8" cy="10.6" rx="1.5" ry="1" transform="rotate(-28 16.8 10.6)"/>
  </g>
  <ellipse cx="1" cy=".8" stroke="#4C4CFF" rx="1" ry=".8" transform="matrix(.9 .5 .5 -.9 17 40.2)"/>
  <ellipse cx="33.7" cy="11.4" stroke="#4C4CFF" rx="1.5" ry="1" transform="rotate(15 33.7 11.4)"/>
  <ellipse cx="1" cy=".8" stroke="#4C4CFF" rx="1" ry=".8" transform="matrix(1 -.3 -.3 -1 30.4 41)"/>
  <ellipse cx="23.5" cy="12" stroke="#4C4CFF" rx="1.5" ry="1" transform="rotate(180 23.5 12)"/>
  <ellipse cx="27.7" cy="8.4" stroke="#4C4CFF" rx="1.5" ry="1" transform="rotate(15 27.7 8.4)"/>
  <ellipse cx="1" cy=".8" stroke="#4C4CFF" rx="1" ry=".8" transform="matrix(1 0 0 -1 24 42.5)"/>
  <ellipse cx="16.8" cy="10.6" stroke="#4C4CFF" rx="1.5" ry="1" transform="rotate(-28 16.8 10.6)"/>
  <ellipse cx="1" cy=".8" stroke="#fff" stroke-width=".5" rx="1" ry=".8" transform="matrix(.9 .5 .5 -.9 17 40.2)"/>
  <ellipse cx="33.7" cy="11.4" stroke="#fff" stroke-width=".5" rx="1.5" ry="1" transform="rotate(15 33.7 11.4)"/>
  <ellipse cx="1" cy=".8" stroke="#fff" stroke-width=".5" rx="1" ry=".8" transform="matrix(1 -.3 -.3 -1 30.4 41)"/>
  <ellipse cx="23.5" cy="12" stroke="#fff" stroke-width=".5" rx="1.5" ry="1" transform="rotate(180 23.5 12)"/>
  <ellipse cx="27.7" cy="8.4" stroke="#fff" stroke-width=".5" rx="1.5" ry="1" transform="rotate(15 27.7 8.4)"/>
  <ellipse cx="1" cy=".8" stroke="#fff" stroke-width=".5" rx="1" ry=".8" transform="matrix(1 0 0 -1 24 42.5)"/>
  <ellipse cx="16.8" cy="10.6" stroke="#fff" stroke-width=".5" rx="1.5" ry="1" transform="rotate(-28 16.8 10.6)"/>
  <defs>
    <filter id="a" width="43.3" height="49" x="3" y=".5" color-interpolation-filters="sRGB" filterUnits="userSpaceOnUse">
      <feFlood flood-opacity="0" result="BackgroundImageFix"/>
      <feBlend in="SourceGraphic" in2="BackgroundImageFix" result="shape"/>
      <feGaussianBlur result="effect1_foregroundBlur_143960_2362" stdDeviation="2"/>
    </filter>
    <filter id="b" width="43.3" height="49" x="3" y=".5" color-interpolation-filters="sRGB" filterUnits="userSpaceOnUse">
      <feFlood flood-opacity="0" result="BackgroundImageFix"/>
      <feBlend in="SourceGraphic" in2="BackgroundImageFix" result="shape"/>
      <feGaussianBlur result="effect1_foregroundBlur_143960_2362" stdDeviation="2"/>
    </filter>
    <filter id="c" width="48.8" height="17" x=".6" y="20" color-interpolation-filters="sRGB" filterUnits="userSpaceOnUse">
      <feFlood flood-opacity="0" result="BackgroundImageFix"/>
      <feBlend in="SourceGraphic" in2="BackgroundImageFix" result="shape"/>
      <feGaussianBlur result="effect1_foregroundBlur_143960_2362" stdDeviation="2"/>
    </filter>
    <filter id="d" width="48.8" height="17" x=".6" y="20" color-interpolation-filters="sRGB" filterUnits="userSpaceOnUse">
      <feFlood flood-opacity="0" result="BackgroundImageFix"/>
      <feBlend in="SourceGraphic" in2="BackgroundImageFix" result="shape"/>
      <feGaussianBlur result="effect1_foregroundBlur_143960_2362" stdDeviation="2"/>
    </filter>
    <filter id="e" width="49" height="12" x=".5" y="14.5" color-interpolation-filters="sRGB" filterUnits="userSpaceOnUse">
      <feFlood flood-opacity="0" result="BackgroundImageFix"/>
      <feBlend in="SourceGraphic" in2="BackgroundImageFix" result="shape"/>
      <feGaussianBlur result="effect1_foregroundBlur_143960_2362" stdDeviation="2"/>
    </filter>
    <filter id="f" width="49" height="12" x=".5" y="14.5" color-interpolation-filters="sRGB" filterUnits="userSpaceOnUse">
      <feFlood flood-opacity="0" result="BackgroundImageFix"/>
      <feBlend in="SourceGraphic" in2="BackgroundImageFix" result="shape"/>
      <feGaussianBlur result="effect1_foregroundBlur_143960_2362" stdDeviation="2"/>
    </filter>
    <filter id="g" width="28.8" height="44.2" x="10.9" y="2.8" color-interpolation-filters="sRGB" filterUnits="userSpaceOnUse">
      <feFlood flood-opacity="0" result="BackgroundImageFix"/>
      <feBlend in="SourceGraphic" in2="BackgroundImageFix" result="shape"/>
      <feGaussianBlur result="effect1_foregroundBlur_143960_2362" stdDeviation="2"/>
    </filter>
    <filter id="h" width="28.8" height="44.2" x="10.9" y="2.8" color-interpolation-filters="sRGB" filterUnits="userSpaceOnUse">
      <feFlood flood-opacity="0" result="BackgroundImageFix"/>
      <feBlend in="SourceGraphic" in2="BackgroundImageFix" result="shape"/>
      <feGaussianBlur result="effect1_foregroundBlur_143960_2362" stdDeviation="2"/>
    </filter>
  </defs>
</svg>
